svg/mastodon.svg

<svg xmlns="http://www.w3.org/2000/svg" width="24" height="24" viewBox="0 0 24 24">
	<g fill="none" stroke="currentColor" stroke-width="2" stroke-linecap="round" stroke-linejoin="round">
		<path d="M15.5 21.5c-10.5 2.5 -12.5 -2.5 -12.5 -8.5v-3c0 -6 2.5 -7 7 -7h4c4.5 0 7 1.5 7 5.5v4c0 6.5 -10 4 -13.5 4c-1 0 -1.5 7 8 5Z" stroke-dasharray="96" stroke-dashoffset="96">
			<animate attributeName="stroke-dashoffset" values="96;0" dur="0.6s" fill="freeze" />
		</path>
		<path d="M7 13.5l0 -5.5c0 0 0.5 -2 2.5 -2c2 0 2.5 2 2.5 2l0 2.5l0 -2.5c0 0 0.5 -2 2.5 -2c2 0 2.5 2 2.5 2l0 5.5" stroke-dasharray="32" stroke-dashoffset="32">
			<animate attributeName="stroke-dashoffset" values="32;0" begin="0.7s" dur="0.7s" fill="freeze" />
		</path>
	</g>
</svg>

<svg xmlns="http://www.w3.org/2000/svg" width="24" height="24" viewBox="0 0 24 24">
	<g fill="none" stroke="currentColor" stroke-width="2" stroke-linecap="round" stroke-linejoin="round">
		<path d="M15.5 21.5C6 23.5 6.5 16.5 7.5 16.5C11 16.5 21 19 21 12.5V8.5C21 4.5 18.5 3 14 3H10C5.5 3 3 4 3 10V13C3 19 5 24 15.5 21.5Z" stroke-dasharray="80" stroke-dashoffset="80">
			<animate attributeName="stroke-dashoffset" values="80;160" dur="0.6s" fill="freeze" />
		</path>
		<path d="M7 13.5L7 8C7 8 7.5 6 9.5 6C11.5 6 12 8 12 8L12 10.5L12 8C12 8 12.5 6 14.5 6C16.5 6 17 8 17 8L17 13.5" stroke-dasharray="32" stroke-dashoffset="32">
			<animate attributeName="stroke-dashoffset" values="32;0" dur="0.4s" begin="0.7s" fill="freeze" />
		</path>
	</g>
</svg>
